app/public/dtpr-icons/dining.svg

<svg width="36" height="36" viewBox="0 0 36 36" fill="none" xmlns="http://www.w3.org/2000/svg">
<path d="M31.8564 8.8453L19 1.42265C18.3812 1.06538 17.6188 1.06538 17 1.42265L4.14359 8.8453C3.52479 9.20257 3.14359 9.86282 3.14359 10.5774V25.4226C3.14359 26.1372 3.52479 26.7974 4.14359 27.1547L17 34.5774C17.6188 34.9346 18.3812 34.9346 19 34.5774L31.8564 27.1547C32.4752 26.7974 32.8564 26.1372 32.8564 25.4226V10.5774C32.8564 9.86282 32.4752 9.20256 31.8564 8.8453Z" fill="black" stroke="black" stroke-width="2"/>
<path d="M14.75 19.1167L17.1083 16.7583L11.2583 10.9167C9.95833 12.2167 9.95833 14.325 11.2583 15.6333L14.75 19.1167V19.1167ZM20.4 17.6083C21.675 18.2 23.4667 17.7833 24.7917 16.4583C26.3833 14.8667 26.6917 12.5833 25.4667 11.3583C24.25 10.1417 21.9667 10.4417 20.3667 12.0333C19.0417 13.3583 18.625 15.15 19.2167 16.425L11.0833 24.5583L12.2583 25.7333L18 20.0083L23.7333 25.7417L24.9083 24.5667L19.175 18.8333L20.4 17.6083V17.6083Z" fill="white"/>
</svg>

<svg xmlns="http://www.w3.org/2000/svg" width="36" height="36" fill="none"><path fill="#000" stroke="#000" stroke-width="2" d="M31.856 8.845 19 1.423a2 2 0 0 0-2 0L4.144 8.845a2 2 0 0 0-1 1.732v14.846a2 2 0 0 0 1 1.732L17 34.577a2 2 0 0 0 2 0l12.856-7.422a2 2 0 0 0 1-1.732V10.577a2 2 0 0 0-1-1.732Z"/><path fill="#fff" d="m14.75 19.117 2.358-2.359-5.85-5.841a3.34 3.34 0 0 0 0 4.716zm5.65-1.509c1.275.592 3.067.175 4.392-1.15 1.591-1.591 1.9-3.875.675-5.1-1.217-1.216-3.5-.916-5.1.675-1.325 1.325-1.742 3.117-1.15 4.392l-8.134 8.133 1.175 1.175L18 20.008l5.733 5.734 1.175-1.175-5.733-5.734z"/></svg>
